.local/share/icons/Gruvbox-Plus-Dark/panel/16/harmony-tray.svg

<svg width="16" height="16" version="1.1" xmlns="http://www.w3.org/2000/svg">
  <defs>
    <style id="current-color-scheme" type="text/css">.ColorScheme-Text { color:#ebdbb2; } .ColorScheme-Highlight { color:#458588; } .ColorScheme-NeutralText { color:#fe8019; } .ColorScheme-PositiveText { color:#689d6a; } .ColorScheme-NegativeText { color:#fb4934; }</style>
  </defs>
  <path class="ColorScheme-Text" d="m8 1c-3.866 0-7 3.134-7 7s3.134 7 7 7 7-3.134 7-7-3.134-7-7-7zm2.211 2c0.205 0 0.566 0.1132 0.689 0.2168l0.1 0.084-0.096 0.2832c-0.218 0.6464-0.821 3.53-1.058 5.055-0.063 0.403-0.1513 0.9251-0.1973 1.162-0.098 0.5133-0.1026 0.7083-0.0136 0.9453 0.14 0.375 0.1352 0.413-0.0938 0.518-0.113 0.052-0.3722 0.122-0.5762 0.158-0.69 0.12-0.8993-0.033-0.9003-0.656 0-0.42 0.0387-0.644 0.3027-1.745 0.117-0.484 0.2109-0.9188 0.2109-0.9668 0-0.081-0.0198-0.0866-0.2968-0.0586-0.163 0.017-0.6634 0.0341-1.111 0.0371-0.4478 3e-3 -0.8277 0.0192-0.8437 0.0352-0.016 0.017-0.1052 0.3663-0.1973 0.7773-0.0921 0.41-0.2566 1.087-0.3672 1.502-0.1105 0.415-0.2106 0.878-0.2207 1.029-0.012 0.18-0.042 0.298-0.0879 0.34-0.1042 0.095-0.6188 0.247-0.9433 0.277-0.3948 0.041-0.535-0.133-0.5059-0.424 0.0266-0.261 0.1814-0.825 0.5684-2.062 0.6547-2.094 1.067-4.474 0.8925-5.166-0.0433-0.1719-0.0493-0.2591-0.0175-0.2988 0.0991-0.1236 0.4968-0.2588 0.8242-0.2793 0.676-0.0141 0.6433 0.2368 0.6211 0.7813-0.0199 0.4881-0.1499 1.407-0.2696 2.021-0.0372 0.191-0.0559 0.3752-0.0429 0.4102 0.0195 0.052 0.2 0.0635 1.064 0.0625 0.572 0 1.064-0.0172 1.092-0.0352 0.088-0.058 0.1388-0.2519 0.5098-1.936 0.199-0.9008 0.3955-1.696 0.4375-1.77 0.094-0.1667 0.3264-0.2989 0.5274-0.2989z" fill="currentColor"/>
</svg>

<svg xmlns="http://www.w3.org/2000/svg" width="16" height="16" version="1.1">
 <defs>
  <style id="current-color-scheme" type="text/css">
   .ColorScheme-Text { color:#ebdbb2; } .ColorScheme-Highlight { color:#458588; }
  </style>
 </defs>
 <path style="fill:currentColor" class="ColorScheme-Text" d="M 8,1 C 4.134,1 1,4.134 1,8 1,11.866 4.134,15 8,15 11.866,15 15,11.866 15,8 15,4.134 11.866,1 8,1 Z M 10.211,2.9999 C 10.416,2.9999 10.777,3.1131 10.9,3.2167 L 11,3.3007 10.904,3.5839 C 10.686,4.2303 10.083,7.1136 9.8457,8.6386 9.7827,9.0416 9.6944,9.5637 9.6484,9.8007 9.5504,10.314 9.5458,10.509 9.6348,10.746 9.7748,11.121 9.77,11.159 9.541,11.264 9.428,11.316 9.1688,11.386 8.9648,11.422 8.2748,11.542 8.0655,11.389 8.0645,10.766 8.0645,10.346 8.1032,10.122 8.3672,9.0214 8.4842,8.5374 8.5781,8.1026 8.5781,8.0546 8.5781,7.9736 8.5583,7.968 8.2813,7.996 8.1183,8.013 7.6179,8.0301 7.1699,8.0331 6.7221,8.0361 6.3422,8.0523 6.3262,8.0683 6.3102,8.0853 6.221,8.4346 6.1289,8.8456 6.0368,9.2556 5.8723,9.9326 5.7617,10.348 5.6512,10.763 5.5511,11.226 5.541,11.377 5.529,11.557 5.499,11.675 5.4531,11.717 5.3489,11.812 4.8343,11.964 4.5098,11.994 4.115,12.035 3.9748,11.861 4.0039,11.57 4.0305,11.309 4.1853,10.745 4.5723,9.5077 5.227,7.4137 5.6389,5.0335 5.4648,4.3417 5.4215,4.1698 5.4155,4.0826 5.4473,4.0429 5.5464,3.9193 5.9441,3.7841 6.2715,3.7636 6.9475,3.7495 6.9148,4.0004 6.8926,4.5449 6.8727,5.033 6.7427,5.9515 6.623,6.5663 6.5858,6.7573 6.5671,6.9415 6.5801,6.9765 6.5996,7.0285 6.7801,7.04 7.6445,7.039 8.2165,7.039 8.7083,7.0218 8.7363,7.0038 8.8243,6.9458 8.8751,6.7519 9.2461,5.0683 9.4451,4.1675 9.6416,3.3719 9.6836,3.2988 9.7776,3.1321 10.01,2.9999 10.211,2.9999 Z"/>
</svg>
